assets/images/payments/dwolla.svg

<svg width="100" height="60" viewBox="0 0 100 60" version="1.1" xmlns="http://www.w3.org/2000/svg" xmlns:xlink="http://www.w3.org/1999/xlink"><title>Dwolla-light</title><desc>Created with Sketch.</desc><g id="Light-Payment-badges" stroke="none" stroke-width="1" fill="none" fill-rule="evenodd" transform="translate(-770.000000, -1089.000000)"><g id="Dwolla-light" transform="translate(770.000000, 1089.000000)"><rect id="Rectangle" fill="#FFF" x="0" y="0" width="100" height="60" rx="4"/><path d="M14.4118182,35.9694118 C15.4657576,35.9694118 16.3727273,35.86 17.1327273,35.6405882 C17.8921212,35.4217647 18.5190909,35.0726471 19.0118182,34.5944118 C19.5045455,34.1158824 19.8672727,33.4982353 20.100303,32.7405882 C20.3330303,31.9832353 20.4490909,31.0732353 20.4490909,30.01 C20.4490909,28.9470588 20.3330303,28.0367647 20.100303,27.2794118 C19.8672727,26.5217647 19.5045455,25.9044118 19.0118182,25.4255882 C18.5190909,24.9470588 17.8921212,24.5988235 17.1327273,24.3794118 C16.3727273,24.1602941 15.4657576,24.0502941 14.4118182,24.0502941 L11.4339394,24.0502941 L11.4339394,35.9694118 L14.4118182,35.9694118 L14.4118182,35.9694118 Z M15.109697,22.8947059 C17.3412121,22.9476471 19.0218182,23.5552941 20.1515152,24.7179412 C21.2809091,25.8811765 21.8454545,27.645 21.8454545,30.01 C21.8454545,32.3752941 21.2809091,34.1394118 20.1515152,35.3017647 C19.0218182,36.4647059 17.3412121,37.0726471 15.109697,37.1258824 L10.0375758,37.1258824 L10.0375758,22.8947059 L15.109697,22.8947059 L15.109697,22.8947059 Z" id="Fill-3" fill="#E46B2A"/><polyline id="Fill-4" fill="#E46B2A" points="23.7139394 22.8947059 27.0412121 35.3520588 27.0824242 35.3520588 30.6554545 22.8947059 32.4009091 22.8947059 35.9945455 35.3520588 36.0357576 35.3520588 39.3830303 22.8947059 40.7793939 22.8947059 36.7339394 37.1258824 35.2554545 37.1258824 31.5384848 24.3894118 31.4972727 24.3894118 27.8006061 37.1258824 26.2812121 37.1258824 22.2151515 22.8947059 23.7139394 22.8947059"/><path d="M42.8436364,32.2920588 C43.0557576,33.0432353 43.3842424,33.7141176 43.8293939,34.3052941 C44.2739394,34.8967647 44.8454545,35.3720588 45.5439394,35.7305882 C46.2424242,36.0891176 47.0772727,36.2685294 48.0493939,36.2685294 C49.0215152,36.2685294 49.8530303,36.0891176 50.5445455,35.7305882 C51.2354545,35.3720588 51.8039394,34.8967647 52.2484848,34.3052941 C52.6939394,33.7141176 53.0224242,33.0432353 53.2348485,32.2920588 C53.4469697,31.5417647 53.5527273,30.7805882 53.5527273,30.01 C53.5527273,29.2258824 53.4469697,28.4620588 53.2348485,27.7179412 C53.0224242,26.9738235 52.6939394,26.3061765 52.2484848,25.7147059 C51.8039394,25.1238235 51.2354545,24.6485294 50.5445455,24.2897059 C49.8530303,23.9305882 49.0215152,23.7514706 48.0493939,23.7514706 C47.0772727,23.7514706 46.2424242,23.9305882 45.5439394,24.2897059 C44.8454545,24.6485294 44.2739394,25.1238235 43.8293939,25.7147059 C43.3842424,26.3061765 43.0557576,26.9738235 42.8436364,27.7179412 C42.6309091,28.4620588 42.5251515,29.2258824 42.5251515,30.01 C42.5251515,30.7805882 42.6309091,31.5417647 42.8436364,32.2920588 L42.8436364,32.2920588 Z M41.56,27.1997059 C41.8472727,26.3097059 42.2784848,25.5223529 42.8536364,24.8376471 C43.4287879,24.1535294 44.1506061,23.6091176 45.020303,23.2032353 C45.8893939,22.7982353 46.8990909,22.5952941 48.0493939,22.5952941 C49.1993939,22.5952941 50.2054545,22.7982353 51.0678788,23.2032353 C51.9306061,23.6091176 52.6490909,24.1535294 53.2242424,24.8376471 C53.7993939,25.5223529 54.2306061,26.3097059 54.5181818,27.1997059 C54.8054545,28.0902941 54.9493939,29.0270588 54.9493939,30.01 C54.9493939,30.9935294 54.8054545,31.9305882 54.5181818,32.8205882 C54.2306061,33.7105882 53.7993939,34.4944118 53.2242424,35.1723529 C52.6490909,35.8502941 51.9306061,36.3917647 51.0678788,36.7967647 C50.2054545,37.2020588 49.1993939,37.4047059 48.0493939,37.4047059 C46.8990909,37.4047059 45.8893939,37.2020588 45.020303,36.7967647 C44.1506061,36.3917647 43.4287879,35.8502941 42.8536364,35.1723529 C42.2784848,34.4944118 41.8472727,33.7105882 41.56,32.8205882 C41.2724242,31.9305882 41.1290909,30.9935294 41.1290909,30.01 C41.1290909,29.0270588 41.2724242,28.0902941 41.56,27.1997059 L41.56,27.1997059 Z" id="Fill-5" fill="#E46B2A"/><polyline id="Fill-6" fill="#E46B2A" points="58.1115152 22.8947059 58.1115152 35.9694118 66.3257576 35.9694118 66.3257576 37.1258824 56.7151515 37.1258824 56.7151515 22.8947059 58.1115152 22.8947059"/><polyline id="Fill-7" fill="#E46B2A" points="69.1387879 22.8947059 69.1387879 35.9694118 77.3533333 35.9694118 77.3533333 37.1258824 67.7427273 37.1258824 67.7427273 22.8947059 69.1387879 22.8947059"/><path d="M86.2042424,31.5447059 L83.370303,24.25 L80.4336364,31.5447059 L86.2042424,31.5447059 L86.2042424,31.5447059 Z M84.2127273,22.8947059 L89.9624242,37.1258824 L88.4633333,37.1258824 L86.6763636,32.7011765 L80.0024242,32.7011765 L78.2363636,37.1258824 L76.7578788,37.1258824 L82.6515152,22.8947059 L84.2127273,22.8947059 L84.2127273,22.8947059 Z" id="Fill-8" fill="#E46B2A"/></g></g></svg>

<svg width="100" height="60" xmlns="http://www.w3.org/2000/svg"><g fill="none" fill-rule="evenodd"><rect fill="#FFF" width="100" height="60" rx="4"/><path d="M14.412 35.97c1.054 0 1.96-.11 2.72-.33.76-.218 1.387-.567 1.88-1.046.493-.478.855-1.096 1.088-1.853.233-.758.35-1.668.35-2.731s-.117-1.973-.35-2.73c-.233-.758-.595-1.376-1.088-1.854-.493-.479-1.12-.827-1.88-1.047-.76-.219-1.666-.329-2.72-.329h-2.978v11.92h2.978zm.698-13.075c2.231.053 3.912.66 5.042 1.823 1.129 1.163 1.693 2.927 1.693 5.292 0 2.365-.564 4.13-1.693 5.292-1.13 1.163-2.81 1.77-5.042 1.824h-5.072V22.895h5.072zm8.604 0l3.327 12.457h.041l3.573-12.457h1.746l3.594 12.457h.04l3.348-12.457h1.396l-4.045 14.23h-1.479L31.538 24.39h-.04L27.8 37.126h-1.52l-4.066-14.231h1.499m19.131 9.397a6.04 6.04 0 00.985 2.013 4.916 4.916 0 001.715 1.426c.698.358 1.533.538 2.505.538.973 0 1.804-.18 2.496-.538a4.947 4.947 0 001.703-1.426 6.042 6.042 0 00.987-2.013 8.353 8.353 0 000-4.574 6.062 6.062 0 00-.987-2.003 4.956 4.956 0 00-1.703-1.425c-.692-.36-1.523-.539-2.496-.539-.972 0-1.807.18-2.505.539a4.924 4.924 0 00-1.715 1.425 6.06 6.06 0 00-.985 2.003 8.296 8.296 0 00-.319 2.292c0 .77.106 1.532.319 2.282zM41.56 27.2a6.95 6.95 0 011.294-2.362 6.219 6.219 0 012.166-1.635c.87-.405 1.88-.608 3.03-.608s2.155.203 3.018.608a6.23 6.23 0 012.156 1.635 6.956 6.956 0 011.294 2.362c.287.89.431 1.827.431 2.81 0 .984-.144 1.92-.43 2.81a6.846 6.846 0 01-1.295 2.352 6.284 6.284 0 01-2.156 1.625c-.863.405-1.869.608-3.019.608-1.15 0-2.16-.203-3.029-.608a6.259 6.259 0 01-2.166-1.625 6.84 6.84 0 01-1.294-2.351 9.085 9.085 0 01-.43-2.811c0-.983.142-1.92.43-2.81zm16.552-4.305v13.074h8.214v1.157h-9.61V22.895h1.396m11.027 0v13.074h8.214v1.157h-9.61V22.895h1.396" fill="#E46B2A"/><path d="M86.204 31.545L83.37 24.25l-2.936 7.295h5.77zm-1.991-8.65l5.75 14.23h-1.5l-1.787-4.424h-6.674l-1.766 4.425h-1.478l5.894-14.231h1.56z" fill="#E46B2A"/></g></svg>
